X:3
K:Bb
BA|FAd c2A|BAA BAB|GBd dAF|~A3 cAB|AdB c2d|ede f2e|1 fdB d2B:|2 dBG E2F||
deg fed|edB BA


*****************************


12500 4 1.0836785 

<starthotothonshheo@lapse@bree.
M:6/8
K:D
~B3 BAB|dcA GEA|DAF AFD|fef gfe|afd fed|fed faf|ede fdB|~B3 BAG


*****************************


12600 4 1.2314256 

<starthonsmaltophe-forrippeplipery.
Z:id:hn-jig-40
M:6/8
K:D
ABd cef|gfe g2f|edB d2e|fgf ecA|dee faf|~g3 


*****************************


12700 4 1.3185571 

<star
gab|agg ege|f2d cdB|c2AF DFG:|
~f3 fgf|efg ecA|~G3 FFA|dcd ~e3|fdB d2f||
age e2d|eBe ~g3|gbg age|fd


*****************************


12800 4 0.85146487 

<startonce
D:Frinkion
D:Dapve boy to Sigh the mong
Q:1/4-005.g
D:DeF:y.Fedon: Seed in Ad,
Z:id:hn-jig-55



*****************************


12900 4 1.3736749 

<starto|fanationsBelle.
M:6/8
K:Edor
~E3 EFD|~D3 AFD|~F3 BAG|dAF DEF|DFA ABc|dfe dcd|ege dBG|AGE DEF:|
<a


*****************************


13000 4 2.3472 

<starbaphI|Acld cAG|1 GAB G2B:|2 dGA BAG||
(3FDD D3:|2 gfg efg|agb gfe||
<end>
<start>
